X:7
T:Mele's
T:Harmony 2
R:Reel
C:Chris Gray
L:1/8
M:C|
K:D
Q:"87 bpm"
[|: {gAGAG}A2 {g}AB {gcd}c2 {g}B{d}A | {g}eA{d}ce {g}fd{G}df | {g}eA{g}c{d}A {gcd}c2 {g}B{d}A | {g}fe{A}ec {A}B2 {g}cB |
{gAGAG}A2 {g}AB {gcd}c2 {g}B{d}A | {g}eA{d}ce {g}fA{g}df | {ag}a2 {cd}ce {g}dB{g}GA | {g}B{G}B{g}Bc {G}A2{g}e2 :|]
d4 c4 | c2 e2 effd |e4 e2 dc | dc c2 d2 cA | 
d4 c4 | A2 GA AGAc | c4 B2 BA | G4 ABce |
d4 d4 | A4 ABBA | c4 A2 GA | A4 d2 cB |
{gAGAG}A2 {g}AB {gcd}c2 {g}B{d}A [M:3/2]| {g}eA{d}ce {g}A4 [M:C|]| {g}B2A2 A2 {g}A2 | dddc e z2 |]